!! J.S. Bach "Adagio" from Sonata No. 1, for solo violin, BWV 1001.
!! From 'Neue Ausgabe Saemtlicher Werke' Serie VI: Kammermusikwerke,
!! Band 1 ('Werke fuer Violine') Baerenreiter Kassel (Basel) 1958; p.3
!! NOTE:  This 'monophonic' work has been recoded here as a four-part work.
!! NOTE:  A considerable degree of latitude has been exercised in the
!!        assignment of parts and voices.
!! NOTE:  This work contains 128th notes.
**kern	**kern	**kern	**kern
*M4/4	*M4/4	*M4/4	*M4/4
=1	=1	=1	=1
4G	4d	[4gg	4b-
2.r	4r	32gg]	4r
.	.	{32ff	.
.	.	32ee-	.
.	.	32dd	.
.	.	32cc	.
.	.	32b-	.
.	.	32a	.
.	.	64b-	.
.	.	64g}	.
.	4A	8g	4cc
.	.	[8f#	.
.	4r	32f#]	4r
.	.	{32en	.
.	.	32d	.
.	.	32e	.
.	.	32f#	.
.	.	32g	.
.	.	32a	.
.	.	64cc	.
.	.	64b-}	.
=2	=2	=2	=2
2r	8d	{8cc	4ff#
.	8r	32cc	.
.	.	64dd	.
.	.	64cc	.
.	.	32b-	.
.	.	32cc	.
.	4r	16.ccT	4r
.	.	64b-	.
.	.	64cc	.
.	.	16dd	.
.	.	16a}	.
8G	8d	8b-	8gg
8r	8r	32r	8r
.	.	{32g	.
.	.	64a	.
.	.	64b-	.
.	.	64cc	.
.	.	64dd}	.
4r	8r	8ee-	4r
.	8g	8b-	.
=3	=3	=3	=3
1r	8d	{16b-	4r
.	.	16a}	.
.	8r	{16ee-	.
.	.	16dd}	.
.	8r	8dd	8r
.	8d	8dd	{16bb-
.	.	.	16ff#}
.	8e-	[16dd	8gg
.	.	32dd]	.
.	.	{32ee-	.
.	8r	32dd	8r
.	.	32cc	.
.	.	32b-	.
.	.	64cc	.
.	.	64a}	.
.	4r	{32b-	4r
.	.	32f#	.
.	.	32g	.
.	.	32d	.
.	.	32e-	.
.	.	64dd	.
.	.	64cc	.
.	.	64b-	.
.	.	64cc	.
.	.	64ccT	.
.	.	128b-	.
.	.	128cc}	.
=4	=4	=4	=4
2r	4d	4dd	{8gg
.	.	.	8ff#T}
.	8r	2.r	8aa
.	8d	.	8cc
16G	16d	.	{16b-
8.r	8.r	.	16dd
.	.	.	16ff#
.	.	.	16aa}
8r	8r	.	8gg
8G	8fn	.	8b-
=5	=5	=5	=5
8c#	8e	2r	{16a
.	.	.	32bb-
.	.	.	64aa
.	.	.	64gg
8r	8r	.	16.ffnT
.	.	.	32ee}
2.r	8r	.	8ff
.	8d	.	8a
.	16g	16b-	{16ff
.	8.r	8.r	16dd}
.	.	.	8ee-
.	8r	4r	{16bb-
.	.	.	16gg}
.	{16b-	.	16gg
.	16g}	.	16ee-
=6	=6	=6	=6
1r	8g	1r	{16ee-
.	.	.	16cc#}
.	8r	.	8aa
.	2.r	.	16.f
.	.	.	{32aa
.	.	.	32gg
.	.	.	32ff
.	.	.	32een
.	.	.	32dd}
.	.	.	{16e
.	.	.	16dd
.	.	.	16gg}
.	.	.	16ee
.	.	.	{16dd
.	.	.	16cc}
.	.	.	{16a
.	.	.	16gg}
=7	=7	=7	=7
1r	4.r	1r	16d
.	.	.	{16gg
.	.	.	16ff
.	.	.	32gg
.	.	.	32ee}
.	.	.	8ff
.	8c	.	8a
.	8B-	.	{16a
.	.	.	16d}
.	8r	.	16g
.	.	.	16ff
.	4r	.	[{8ee
.	.	.	64ee]
.	.	.	64ff
.	.	.	64gg
.	.	.	64aa
.	.	.	64bb-
.	.	.	64ee
.	.	.	64ff
.	.	.	64gg}
=8	=8	=8	=8
1r	4A	4g	{8dd
.	.	.	8cc#}
.	4r	4r	{32g
.	.	.	16f
.	.	.	64g
.	.	.	64e
.	.	.	16f}
.	.	.	16dd
.	8A	8e	{32.dd
.	.	.	64cc#
.	.	.	32bn
.	.	.	32cc#
.	4.r	4.r	32dd
.	.	.	32ee
.	.	.	32ff
.	.	.	64gg
.	.	.	64ee}
.	.	.	8.cc#T
.	.	.	16dd
=9	=9	=9	=9
2r	4d	2.r	[4dd
.	4r	.	32dd]
.	.	.	{32dd
.	.	.	32ccn
.	.	.	32b-
.	.	.	64a
.	.	.	64b-
.	.	.	64a
.	.	.	64b-
.	.	.	32b-T
.	.	.	64a
.	.	.	64b-}
16A	16f#	.	16cc
8.r	8.r	.	{32ee-
.	.	.	32dd}
.	.	.	[8ee
4r	4r	8ff#	32ee]
.	.	.	{32ee
.	.	.	32dd
.	.	.	32cc
.	.	8r	16b-
.	.	.	32cc
.	.	.	32a}
=10	=10	=10	=10
8G	8d	8gg	32a
.	.	.	8b-
8r	8r	8r	.
.	.	.	32g
.	.	.	32b-
.	.	.	32dd
2.r	4r	4r	{32gg
.	.	.	32ffn
.	.	.	32ee-
.	.	.	32dd
.	.	.	32cc
.	.	.	32b-
.	.	.	64a
.	.	.	64g
.	.	.	64f#
.	.	.	64g}
.	4d	{8g	4a
.	.	8f#}	.
.	8G	16.fn	8bn
.	.	{64g	.
.	.	64a-	.
.	8r	32g	8r
.	.	32f	.
.	.	32e-	.
.	.	64f	.
.	.	64d}	.
=11	=11	=11	=11
1r	16c	8d	{16bn
.	8.r	.	16dd}
.	.	8e-	{16dd
.	.	.	16cc}
.	4r	8f	{16ee-
.	.	.	16dd}
.	.	8g	{16dd
.	.	.	16ee-}
.	8A-	8f	16.dd
.	.	.	{32b-
.	8r	8r	32cc
.	.	.	32dd
.	.	.	32ee-
.	.	.	64ff
.	.	.	64gg}
.	4r	4r	{16aa-
.	.	.	16b-
.	.	.	16d}
.	.	.	16aa-
=12	=12	=12	=12
2.r	2r	2r	16e-
.	.	.	{16aa-
.	.	.	8gg}
.	.	.	8dd-
.	.	.	{32e-
.	.	.	32g
.	.	.	32b-
.	.	.	32dd-}
.	8r	8r	16A-
.	.	.	16cc
.	8f	8cc	16aa-
.	.	.	{32gg
.	.	.	32ff}
8B-	8f	4r	{8ee-
8r	8r	.	16.ddnT}
.	.	.	32ee-
=13	=13	=13	=13
4An;	4g-;	4r;	4ee-;
4r	4r	4r	{32Bn
.	.	.	32d
.	.	.	32f
.	.	.	32a-
.	.	.	32bn
.	.	.	32dd
.	.	.	32ff
.	.	.	64aa-
.	.	.	64gg}
2r	16e-	16cc	[16gg
.	8.r	8.r	32gg]
.	.	.	{64aa-
.	.	.	64gg
.	.	.	64ff#
.	.	.	64gg
.	.	.	64dd
.	.	.	64ee-
.	.	.	64b
.	.	.	64cc
.	.	.	32f#}
.	4r	4r	32gn
.	.	.	16ee-
.	.	.	{16dd
.	.	.	64ccT
.	.	.	64b
.	.	.	16cc}
=14	=14	=14	=14
1r	1r	1r	16.cc
.	.	.	{64b-
.	.	.	64a-
.	.	.	32g
.	.	.	32fn
.	.	.	32e-
.	.	.	32d}
.	.	.	{32c
.	.	.	32Bn
.	.	.	32c
.	.	.	32G
.	.	.	32c
.	.	.	32e-
.	.	.	32g
.	.	.	32cc}
.	.	.	{16d
.	.	.	32cc
.	.	.	32ffn}
.	.	.	[8bnT
.	.	.	32b]
.	.	.	{32an
.	.	.	32g
.	.	.	32a
.	.	.	32b
.	.	.	32cc
.	.	.	32dd
.	.	.	64ff
.	.	.	64ee-}
=15	=15	=15	=15
4G	4d	4bn	[4ff
2.r	4r	4r	32ff]
.	.	.	{32aa-
.	.	.	32gg
.	.	.	32ff
.	.	.	32gg
.	.	.	32ff
.	.	.	32ee-
.	.	.	32dd}
.	8c	8g	8ee-
.	8r	8r	32r
.	.	.	{32cc
.	.	.	64dd
.	.	.	64ee-
.	.	.	64ff
.	.	.	64gg}
.	8r	8r	8aa-
.	8c	8a-	8ee-
=16	=16	=16	=16
4r	8B-	8f	{16ee-
.	.	.	16dd}
.	8r	8r	{16aa-
.	.	.	16gg}
8r	8r	8r	8gg
8G	8g	{16ee-	8gg
.	.	16bn}	.
8A-	8e-	16.cc	8gg
.	.	{32b-	.
8r	8r	32a-	8r
.	.	32g	.
.	.	32a-	.
.	.	32cc}	.
4r	4r	{32ff	4r
.	.	32gg	.
.	.	32ee-	.
.	.	32ff	.
.	.	16.ffT	.
.	.	64ee-	.
.	.	64ff}	.
=17	=17	=17	=17
8G	8d	4gg	{8cc
8r	8r	.	8bn}
8r	8r	8ff	8dd
8Bn	8g	8ff	8dd
8c	4r	4r	{32g
.	.	.	32b
.	.	.	32dd
.	.	.	32ff}
8r	.	.	{16aa-
.	.	.	16gg}
8r	8r	8r	8ee-
8c	8g	8ee-	8gg
=18	=18	=18	=18
1r	8f#	[16ee-	4aan
.	.	32ee-]	.
.	.	{32dd	.
.	8r	32cc	.
.	.	32dd	.
.	.	64cc	.
.	.	64b-	.
.	.	64cc	.
.	.	64a}	.
.	2.r	[16b-	2r
.	.	64b-]	.
.	.	{64a	.
.	.	64g	.
.	.	64f#	.
.	.	32g	.
.	.	32d	.
.	.	32B-	.
.	.	32G}	.
.	.	{32c	.
.	.	32e-	.
.	.	32b-	.
.	.	32g}	.
.	.	8a-	.
.	.	{16ee-	8r
.	.	16cc}	.
.	.	{16cc	{16aa-
.	.	16an}	16ff#}
=19	=19	=19	=19
1r	1r	16a	{32ff#
.	.	.	32gg
.	.	8.r	32aan
.	.	.	32ff#}
.	.	.	8dd
.	.	2.r	16.B-
.	.	.	{32dd
.	.	.	32cc
.	.	.	32b-
.	.	.	32a
.	.	.	64b-
.	.	.	64g}
.	.	.	{16A
.	.	.	16g
.	.	.	16cc}
.	.	.	16a
.	.	.	{16g
.	.	.	16f#
.	.	.	16d}
.	.	.	16cc
=20	=20	=20	=20
1r	1r	1r	16.G
.	.	.	{32cc
.	.	.	16b-
.	.	.	32cc
.	.	.	32a}
.	.	.	16.b-
.	.	.	{32G
.	.	.	16A
.	.	.	32c
.	.	.	32B-}
.	.	.	16c
.	.	.	{16d
.	.	.	16e-}
.	.	.	{16g
.	.	.	16a-}
.	.	.	{16bn
.	.	.	16cc}
.	.	.	16ee-
=21	=21	=21	=21
4c	4d	4an	{8gg
.	.	.	8ff#}
8r	8r	8r	{16bb-
.	.	.	32aa
.	.	.	64gg
.	.	.	64ff#}
8c#	8en	8a	8gg
2r	8d	8a	16.gg
.	.	.	{32b-
.	8r	8r	32ccn
.	.	.	32dd
.	.	.	32een
.	.	.	32ff#}
.	4r	4r	{64gg
.	.	.	64aa
.	.	.	64bb-
.	.	.	64aa
.	.	.	64bb-
.	.	.	64gg
.	.	.	64aa-
.	.	.	128ff#
.	.	.	128gg}
.	.	.	{16gg
.	.	.	32.ff#T}
.	.	.	64gg
=22	=22	=22	=22
1G;	1d;	1b-;	1gg;
==	==	==	==
*-	*-	*-	*-
